X:1
T:Theron, LM
T:Theron, LM
T:Luther Orlando Emerson, 1886
T:Public Domain Courtesy of the Cyber Hymnal™
C:Luther Orlando Emerson, 1886
Z:Public Domain
Z:Courtesy of the Cyber Hymnal™
%%score ( 1 2 ) ( 3 4 )
L:1/8
Q:1/4=125
M:2/2
K:F
V:1 treble 
V:2 treble 
V:3 bass 
V:4 bass 
V:1
 [FA]4 F2 [FA]2 | (c2 B2) ([FA]2 [EG]2) | F4 [EG]4 | [FA]8 | [Af]4 [ce]2 [Bd]2 | [Ac]4 [FA]4 | %6
 G4 G4 | [EG]8 | [FA]4 F2 [FA]2 | (c2 B2) ([FA]2 [EG]2) | F4 ([EG]2 [FA]2) | [EGB]8 | %12
 [FA]4 [FA]2 [_EA]2 | [Dd]4 ([DF]2 [FG]2) | [FA]4 [CEG]4 | [CF]8 |] %16
V:2
 x4 F2 x2 | F4 x4 | F4 x4 | x8 | x8 | x8 | (E2 G2) (F2 D2) | x8 | x4 F2 x2 | F4 x4 | F4 x4 | x8 | %12
 x8 | x8 | x8 | x8 |] %16
V:3
 [F,C]4 [F,A,]2 [F,C]2 | [F,D]4 C4 | [A,C]4 [G,C]4 | [F,C]8 | [F,C]4 [F,C]2 (DE) | [F,F]4 [F,C]4 | %6
 (C2 E2) (D2 =B,2) | [C,C]8 | [F,C]4 [F,A,]2 [F,C]2 | [F,D]4 C4 | [A,C]4 C4 | [C,C]8 | %12
 [F,C]4 [F,C]2 [F,C]2 | [B,,B,]4 [B,,D]4 | [C,C]4 [C,B,]4 | [F,A,]8 |] %16
V:4
 x8 | x4 (F,2 B,2) | x8 | x8 | x6 F,2 | x8 | G,4 G,4 | x8 | x8 | x4 (F,2 B,2) | x4 (G,2 F,2) | x8 | %12
 x8 | x8 | x8 | x8 |] %16

